Catalina-light/actions/22/curve-connector.svg

<svg xmlns="http://www.w3.org/2000/svg" viewBox="0 0 22 22">
  <defs id="defs3051">
    <style type="text/css" id="current-color-scheme">
      .ColorScheme-Text {
        color:#4d4d4d;
      }
      .ColorScheme-Highlight {
        color:#3daee9;
      }
      </style>
  </defs>
 <path 
     style="fill:currentColor;fill-opacity:1;stroke:none" 
     d="M 6.7324219 5.1328125 L 6.7324219 6.1992188 L 16.333984 6.1992188 A 2.1333334 2.1333334 0 0 1 18.466797 8.3339844 A 2.1333334 2.1333334 0 0 1 16.333984 10.466797 L 6.7324219 10.466797 A 3.2000001 3.2000001 0 0 0 3.5332031 13.666016 A 3.2000001 3.2000001 0 0 0 6.7324219 16.867188 L 15.267578 16.867188 L 15.267578 15.800781 L 6.7324219 15.800781 A 2.1333334 2.1333334 0 0 1 4.5996094 13.666016 A 2.1333334 2.1333334 0 0 1 6.7324219 11.533203 L 16.333984 11.533203 A 3.2000001 3.2000001 0 0 0 19.533203 8.3339844 A 3.2000001 3.2000001 0 0 0 16.333984 5.1328125 L 6.7324219 5.1328125 z "
     class="ColorScheme-Text"
     />
 <path 
     style="fill:currentColor;fill-opacity:1;stroke:none" 
     d="M 5.1328125 3 C 3.6600551 3 2.4667969 4.1932582 2.4667969 5.6660156 C 2.4667969 7.138773 3.6600551 8.3339844 5.1328125 8.3339844 C 6.6055699 8.3339844 7.8007812 7.138773 7.8007812 5.6660156 C 7.8007812 4.1932582 6.6055699 3 5.1328125 3 z M 16.867188 13.666016 C 15.39443 13.666016 14.199219 14.861227 14.199219 16.333984 C 14.199219 17.806742 15.39443 19 16.867188 19 C 18.339945 19 19.533203 17.806742 19.533203 16.333984 C 19.533203 14.861227 18.339945 13.666016 16.867188 13.666016 z "
     class="ColorScheme-Highlight"
     />
</svg>

<svg viewBox="0 0 22 22" xmlns="http://www.w3.org/2000/svg">
<defs>
<style id="current-color-scheme" type="text/css">.ColorScheme-Text {
        color:#4d4d4d;
      }
      .ColorScheme-Highlight {
        color:#3daee9;
      }</style>
</defs>
<path class="ColorScheme-Text" d="m6.7324 5.1328v1.0664h9.6016a2.1333 2.1333 0 0 1 2.1328 2.1348 2.1333 2.1333 0 0 1-2.1328 2.1328h-9.6016a3.2 3.2 0 0 0-3.1992 3.1992 3.2 3.2 0 0 0 3.1992 3.2012h8.5352v-1.0664h-8.5352a2.1333 2.1333 0 0 1-2.1328-2.1348 2.1333 2.1333 0 0 1 2.1328-2.1328h9.6016a3.2 3.2 0 0 0 3.1992-3.1992 3.2 3.2 0 0 0-3.1992-3.2012h-9.6016z" fill="currentColor"/>
<path class="ColorScheme-Highlight" d="m5.1328 3c-1.4728 0-2.666 1.1933-2.666 2.666s1.1933 2.668 2.666 2.668 2.668-1.1952 2.668-2.668-1.1952-2.666-2.668-2.666zm11.734 10.666c-1.4728 0-2.668 1.1952-2.668 2.668s1.1952 2.666 2.668 2.666 2.666-1.1933 2.666-2.666c0-1.4728-1.1933-2.668-2.666-2.668z" fill="currentColor"/>
</svg>
